X: 021110
T: Ballydesmond #1
S: "Johnny O'Leary of Sliabh Luachra" (#57)
Z: B.Black
L: 1/8
M: 2/4
Q: 290
R: polka
K: Dmix
A2 AG|EF GE|A2 AG|Ad d^c|
A>G AG|EF GF/G/|AB cE|ED D2 :|
ed d^c/d/|eB c2|ed ^c>d|ea ag|
ed d^c/d/|eB c/d/c/B|AB c/d/e/f/|\
ef g2|
ed d^c/d/|eB c2|ed ^c>d|ea ag|
e/f/g/e/ d/e/d/^c/|ce dd/c/|AB cE|\
ED D2 ||
